X: 6443
T: Castlebridge, The
R: jig
M: 6/8
K: Bminor
A|:dfe dcB|ABA AGF|GBd FAd|Bcd cBA|
dfe dcB|ABA AGF|GBd FAd|1 cBc d2A:|2 cBc dcB||
|:AFA d2 f|aba agf|e2 f gfe|fed BdB|
AFA d2 f|~a3 agf|e2 f gfe|1 dfe dcB:|2 d6||

